X: 7
T:The Flax in Bloom
M:C |
L:1/8
Q:200
C:Traditional
S:Kevin Burke, ed. by Roger Landes
R:Reel
K:D
DD F/E/D FAAf | gefd edBG | {B}A/A/A FA ABdf | g/g/g fg edBA | DD F/E/D FAAf | gefd edBG | AF F/F/F ABdf | {b}afeg fd d/d/d :| ffdf eAce | dcdA BAFA | DFAd FAdf | g/f/e fd edBd | ffdf eAce | dcdA BAFA | DFAd FAdf | {b}afeg fd d/d/d :|
ffaf dfaf | ggfg eB B/B/B | fd d/d/d Adfd | ceae ceae | ffaf dfaf | ggfg eB B/B/B | AF F/F/F ABdf | {b}afeg fd d/d/d :||

